ru/_assets/serverless-container-icon.svg

<svg width="16" height="11" viewBox="0 0 16 11" fill="none" xmlns="http://www.w3.org/2000/svg">
<path fill-rule="evenodd" clip-rule="evenodd" d="M0 8C0 6.347 1.345 5 3 5C3.073 5 3.145 5 3.217 5.014C3.07392 4.60722 3.00055 4.17921 3 3.748C3.0008 2.75387 3.3962 1.80071 4.09935 1.09793C4.8025 0.395163 5.75587 0.000264714 6.75 0C6.832 0 7.915 1.11759e-08 7.997 0.013V11H3.001C2.20542 10.9995 1.44256 10.6833 0.879911 10.1208C0.317258 9.55833 0.000794608 8.79558 0 8ZM8.998 11V8H11.998V11H8.998ZM12.998 11V8H15.998V11H12.998ZM9 7V4H12V7H9ZM13 7V4H16V7H13ZM8.997 3V0.00200009H11.997V3.002L8.997 3Z" fill="black"/>
</svg>

<svg xmlns="http://www.w3.org/2000/svg" width="16" height="11" fill="none" viewBox="0 0 16 11">
    <path fill="#000" fill-rule="evenodd" d="M0 8c0-1.653 1.345-3 3-3 .073 0 .145 0 .217.014A3.751 3.751 0 0 1 6.75 0c.082 0 1.165 0 1.247.013V11H3.001A3.003 3.003 0 0 1 0 8Zm8.998 3V8h3v3h-3Zm4 0V8h3v3h-3ZM9 7V4h3v3H9Zm4 0V4h3v3h-3ZM8.997 3V.002h3v3l-3-.002Z" clip-rule="evenodd"/>
</svg>
